apps/scalable/lutris.svg

<svg xmlns="http://www.w3.org/2000/svg" style="isolation:isolate" width="256" height="256"><defs><filter id="a" width="270.648" height="254.338" x="-7.32" y="2.95" filterUnits="userSpaceOnUse"><feGaussianBlur xmlns="http://www.w3.org/2000/svg" in="SourceGraphic" stdDeviation="4.294"/><feOffset xmlns="http://www.w3.org/2000/svg" dy="4" result="pf_100_offsetBlur"/><feFlood xmlns="http://www.w3.org/2000/svg" flood-opacity=".4"/><feComposite xmlns="http://www.w3.org/2000/svg" in2="pf_100_offsetBlur" operator="in" result="pf_100_dropShadow"/><feBlend xmlns="http://www.w3.org/2000/svg" in="SourceGraphic" in2="pf_100_dropShadow"/></filter></defs><g filter="url(#a)"><linearGradient id="b" x1=".733" x2=".267" y1="1.071" y2=".005" gradientTransform="matrix(244.648 0 0 228.338 5.676 11.947)" gradientUnits="userSpaceOnUse"><stop offset="0%" stop-color="#f37e40"/><stop offset="100%" stop-color="#f34f17"/></linearGradient><path fill="url(#b)" d="M165.685 11.947c74.055 0 84.639 10.557 84.639 84.544v59.251c0 73.986-10.584 84.543-84.639 84.543h-75.37c-74.055 0-84.639-10.557-84.639-84.543V96.491c0-73.987 10.584-84.544 84.639-84.544h75.37z"/></g><circle fill="#FF6300" r="1" transform="translate(128.004 128.989) scale(80.559)" vector-effect="non-scaling-stroke"/><path fill="#946857" d="M117.379 83.29c10.14 2.399 11.24 15.323 19.397 18.47 10.883 4.421 11.811-9.419 6.192-16.737"/><path fill="#946857" d="M5.963 85.113c-.084 3.935-.283 7.376-.283 11.742v59.252c0 4.052.192 7.218.264 10.898 15.322 38.973 51.81 66.93 95.113 68.1 28.414.768 50.596-10.131 70.055-28.478 2.077-1.734 3.209-2.815 3.209-2.815s24.551-21.658 25.683-39.939c-5.384 8.895-13.773 17.312-27.176 23.908-6.146 2.847-11.78 5.271-17.459 7.185-.363.089-.728.178-1.097.266a88.338 88.338 0 0 1-8.463 1.588c-.358.044-.624.906-.986.951-3.064.388-5.256 1.183-8.525 1.321.073.68-2.678.519-3.017.527-3.224.103-3.403-.409-6.751-.538 1.264 1.729-2.68.561-2.899.554-3.405-.152-2.095.153-5.555-.25-.494-.06-2.418-.767-2.912-.825-3.368-.428-5.714-1.605-9.061-2.275-.541-.103-1.849-.217-2.388-.33-3.276-.696-6.164-2.739-9.351-3.668a129.831 129.831 0 0 1-3.049-.928c-.763-.243-1.528-.477-2.281-.735-1.078-.368-2.128-.765-3.186-1.162-.863-.322-1.732-.637-2.58-.98-.983-.396-1.937-.825-2.899-1.248-.814-.358-1.643-.703-2.441-1.078a92.323 92.323 0 0 1-5.096-2.58 53.14 53.14 0 0 1-3.752-2.28c-2.734-1.825-5.119-3.839-7.257-5.949-11.131-11.359-10.614-24.714-10.03-33.371.737-10.874 9.852-34.732 39.852-47.367 18.535-6.545 40.335-11.121 58.558-5.254 13.709 3.093 23.566 7.59 36.602 12.193 0 0-.106.226 3.496 1.119 25.353 4.016 22.508-16.869 22.508-16.869l-1.988-4.888c-.44-2.576 1.49-4.608 1.49-4.608s-1.562-5.758-1.299-9.564c.267-3.805.052-8.682-.777-15.637-.83-6.956-5.395-12.841-6.875-13.922-1.484-1.08-8.397-6.291-15.02-8.89-6.626-2.6-13.323-4.52-21.572-3.358-.916.133-1.783.271-2.686.406-.16-.044-.286-.104-.459-.162-3.145-.934-5.371-8.368-7.941-8.306a4.49 4.49 0 0 0-.596.045 4.67 4.67 0 0 0-.607.087h-.012c-.208.045-.414.088-.629.149a3.928 3.928 0 0 0-.67.244c-1.504.7-2.426 8.792-2.996 10.518A102.43 102.43 0 0 0 106.578 16.9a91.377 91.377 0 0 0-2.716-.043l-.002.002c-44.138-.034-82.166 28.105-97.897 68.254z"/><path fill="#F2F2F2" d="M149.912 48.156c-11.421-.015-23.802 3.327-32.845 6.473-17.15 6.068-27.843 10.979-41.739 20.91-3.684 2.675-18.165 13.307-26.962 28.132-24.314 42.986-7.111 88.628 24.33 98.999 28.601 10.696 69.625 3.886 101.87-15.746-1.08.272-15.466 6.709-16.562 6.949-1.382.653-2.609.928-4.084 1.179-2.234.679-4.51.964-6.82 1.465-2.31.501-4.65.911-7.012 1.229a91.11 91.11 0 0 1-12.22.818 91.839 91.839 0 0 1-14.284-1.119 88.982 88.982 0 0 1-6.965-1.391 85.804 85.804 0 0 1-6.75-1.924 81.86 81.86 0 0 1-6.47-2.443 77.435 77.435 0 0 1-6.127-2.933 73.093 73.093 0 0 1-5.723-3.399 68.233 68.233 0 0 1-5.258-3.826 63.718 63.718 0 0 1-4.742-4.219 58.983 58.983 0 0 1-4.181-4.566 54.705 54.705 0 0 1-3.577-4.871 51.077 51.077 0 0 1-2.935-5.125 48.1 48.1 0 0 1-2.266-5.328 45.9 45.9 0 0 1-1.574-5.479 44.503 44.503 0 0 1-1.045-9.547c.025-1.323.11-2.645.254-3.963.005-.113-.065-.227-.049-.34.023-.159.077-.315.102-.474.266-1.734.613-3.461 1.101-5.17a44.392 44.392 0 0 1 1.992-5.533 47.917 47.917 0 0 1 2.76-5.364 52.503 52.503 0 0 1 3.504-5.14 58.06 58.06 0 0 1 4.209-4.867c.243-.231.489-.46.736-.688 3.757-5.91 10.101-11.622 21.071-16.242 12.985-4.585 27.554-8.117 41.39-7.856 5.914.112 11.708.845 17.164 2.602 3.133.707 6.023 1.574 8.836 2.5 9.501 3.128 17.705 7.242 27.762 10.793 0 0-.108.224 3.494 1.115a38.38 38.38 0 0 0 4.047.412c21.371 1.125 22.125-18.709 22.125-18.709l-.723-4.064-2.207-5.516-1.052-2.363-.633-1.281s-.183-1.612-.44-3.25c-.485 6.124-2.923 9.449-2.923 9.449-19.705-3.736-23.228-20.726-44.004-27.858-4.391-1.726-9.383-2.425-14.575-2.431z"/><path fill="#946857" d="M45.094 103.457l-.118.974c7.929-.402 17.647 1.315 24.855 6.372 5.589 3.773 10.623 9.404 17.789 6.856 4.898-1.718 5.171-4.627 3.293-9.411-1.586-3.889-4.207-10.606-7.449-13.181-4.669-3.695-16.741-2.405-17.346-10.132-.455-3.653 1.845-6.4 3.886-9.062-.004 0-23.376 5.876-24.91 27.584z"/><path fill="#3F3F3F" d="M208.869 79.224s-.898 2.833-5.115 3.081c-4.216.252-3.487 6.115.169 9.398 3.657 3.284 6.517 4.185 8.955 1.665 2.435-2.516 8.414-6.689-4.009-14.144zM183.636 68.457c-2.651 3.383-7.55 3.966-10.944 1.308-3.393-2.67-4.001-7.571-1.348-10.956 2.646-3.378 7.549-3.962 10.941-1.301 3.395 2.666 3.995 7.565 1.351 10.949zM214.306 68.895c-.23 3.007-2.143 5.264-4.272 5.037-2.127-.223-3.664-2.836-3.43-5.849.232-3.003 2.142-5.259 4.268-5.035 2.127.23 3.665 2.842 3.434 5.847z"/><g opacity=".4"><linearGradient id="c" x1=".517" x2=".517" y2="1"><stop offset="0%" stop-color="#fff"/><stop offset="12.5%" stop-opacity=".098" stop-color="#fff"/><stop offset="92.5%" stop-opacity=".098"/><stop offset="100%" stop-opacity=".498"/></linearGradient><path fill="none" stroke="url(#c)" stroke-linecap="round" stroke-linejoin="round" stroke-width="4.077" d="M165.685 11.947c74.055 0 84.639 10.557 84.639 84.544v59.251c0 73.986-10.584 84.543-84.639 84.543h-75.37c-74.055 0-84.639-10.557-84.639-84.543V96.491c0-73.987 10.584-84.544 84.639-84.544h75.37z" vector-effect="non-scaling-stroke"/></g></svg>

<svg xmlns="http://www.w3.org/2000/svg" style="isolation:isolate" width="256" height="256" viewBox="0 0 256 256">
 <defs>
  <filter id="wBThrHPGDsxUBkhKLtZOJAIKxaX8BE1G" width="270.648" height="254.338" x="-7.32" y="2.95" filterUnits="userSpaceOnUse">
   <feGaussianBlur xmlns="http://www.w3.org/2000/svg" in="SourceGraphic" stdDeviation="4.294"/>
   <feOffset xmlns="http://www.w3.org/2000/svg" dx="0" dy="4" result="pf_100_offsetBlur"/>
   <feFlood xmlns="http://www.w3.org/2000/svg" flood-opacity=".4"/>
   <feComposite xmlns="http://www.w3.org/2000/svg" in2="pf_100_offsetBlur" operator="in" result="pf_100_dropShadow"/>
   <feBlend xmlns="http://www.w3.org/2000/svg" in="SourceGraphic" in2="pf_100_dropShadow" mode="normal"/>
  </filter>
 </defs>
 <g filter="url(#wBThrHPGDsxUBkhKLtZOJAIKxaX8BE1G)">
  <linearGradient id="_lgradient_173" x1=".733" x2=".267" y1="1.071" y2=".005" gradientTransform="matrix(244.648,0,0,228.338,5.676,11.947)" gradientUnits="userSpaceOnUse">
   <stop offset="0%" style="stop-color:rgb(243,126,64)"/>
   <stop offset="100%" style="stop-color:rgb(243,79,23)"/>
  </linearGradient>
  <path fill="url(#_lgradient_173)" d="M 165.685 11.947 C 239.74 11.947 250.324 22.504 250.324 96.491 L 250.324 155.742 C 250.324 229.728 239.74 240.285 165.685 240.285 L 90.315 240.285 C 16.26 240.285 5.676 229.728 5.676 155.742 L 5.676 96.491 C 5.676 22.504 16.26 11.947 90.315 11.947 L 165.685 11.947 Z"/>
 </g>
 <g>
  <circle fill="#FF6300" cx="0" cy="0" r="1" transform="matrix(80.559,0,0,80.559,128.004,128.989)" vector-effect="non-scaling-stroke"/>
  <path fill="#946857" d="M 117.379 83.29 C 127.519 85.689 128.619 98.613 136.776 101.76 C 147.659 106.181 148.587 92.341 142.968 85.023"/>
  <path fill="#946857" d="M 5.963 85.113 C 5.879 89.048 5.68 92.489 5.68 96.855 L 5.68 156.107 C 5.68 160.159 5.872 163.325 5.944 167.005 C 21.266 205.978 57.754 233.935 101.057 235.105 C 129.471 235.873 151.653 224.974 171.112 206.627 C 173.189 204.893 174.321 203.812 174.321 203.812 C 174.321 203.812 198.872 182.154 200.004 163.873 C 194.62 172.768 186.231 181.185 172.828 187.781 C 166.682 190.628 161.048 193.052 155.369 194.966 C 155.006 195.055 154.641 195.144 154.272 195.232 C 151.582 195.874 148.764 196.413 145.809 196.82 C 145.451 196.864 145.185 197.726 144.823 197.771 C 141.759 198.159 139.567 198.954 136.298 199.092 C 136.371 199.772 133.62 199.611 133.281 199.619 C 130.057 199.722 129.878 199.21 126.53 199.081 C 127.794 200.81 123.85 199.642 123.631 199.635 C 120.226 199.483 121.536 199.788 118.076 199.385 C 117.582 199.325 115.658 198.618 115.164 198.56 C 111.796 198.132 109.45 196.955 106.103 196.285 C 105.562 196.182 104.254 196.068 103.715 195.955 C 100.439 195.259 97.551 193.216 94.364 192.287 C 93.342 191.989 92.323 191.68 91.315 191.359 C 90.552 191.116 89.787 190.882 89.034 190.624 C 87.956 190.256 86.906 189.859 85.848 189.462 C 84.985 189.14 84.116 188.825 83.268 188.482 C 82.285 188.086 81.331 187.657 80.369 187.234 C 79.555 186.876 78.726 186.531 77.928 186.156 C 76.19 185.338 74.481 184.481 72.832 183.576 C 71.52 182.849 70.271 182.091 69.08 181.296 C 66.346 179.471 63.961 177.457 61.823 175.347 C 50.692 163.988 51.209 150.633 51.793 141.976 C 52.53 131.102 61.645 107.244 91.645 94.609 C 110.18 88.064 131.98 83.488 150.203 89.355 C 163.912 92.448 173.769 96.945 186.805 101.548 C 186.805 101.548 186.699 101.774 190.301 102.667 C 215.654 106.683 212.809 85.798 212.809 85.798 L 210.821 80.91 C 210.381 78.334 212.311 76.302 212.311 76.302 C 212.311 76.302 210.749 70.544 211.012 66.738 C 211.279 62.933 211.064 58.056 210.235 51.101 C 209.405 44.145 204.84 38.26 203.36 37.179 C 201.876 36.099 194.963 30.888 188.34 28.289 C 181.714 25.689 175.017 23.769 166.768 24.931 C 165.852 25.064 164.985 25.202 164.082 25.337 C 163.922 25.293 163.796 25.233 163.623 25.175 C 160.478 24.241 158.252 16.807 155.682 16.869 C 155.485 16.872 155.288 16.884 155.086 16.914 C 154.888 16.929 154.683 16.958 154.479 17.001 L 154.467 17.001 C 154.259 17.046 154.053 17.089 153.838 17.15 C 153.604 17.209 153.38 17.297 153.168 17.394 C 151.664 18.094 150.742 26.186 150.172 27.912 C 136.977 21.242 122.224 17.321 106.578 16.9 C 105.667 16.873 104.768 16.857 103.862 16.857 L 103.86 16.859 C 59.722 16.825 21.694 44.964 5.963 85.113 L 5.963 85.113 Z"/>
  <path fill="#F2F2F2" d="M 149.912 48.156 C 138.491 48.141 126.11 51.483 117.067 54.629 C 99.917 60.697 89.224 65.608 75.328 75.539 C 71.644 78.214 57.163 88.846 48.366 103.671 C 24.052 146.657 41.255 192.299 72.696 202.67 C 101.297 213.366 142.321 206.556 174.566 186.924 C 173.486 187.196 159.1 193.633 158.004 193.873 C 156.622 194.526 155.395 194.801 153.92 195.052 C 151.686 195.731 149.41 196.016 147.1 196.517 C 144.79 197.018 142.45 197.428 140.088 197.746 C 137.726 198.064 135.345 198.291 132.953 198.423 C 131.261 198.517 129.564 198.564 127.868 198.564 C 125.47 198.564 123.075 198.47 120.69 198.283 C 118.305 198.096 115.933 197.817 113.584 197.445 C 111.234 197.072 108.91 196.608 106.619 196.054 C 104.33 195.501 102.077 194.859 99.869 194.13 C 97.662 193.401 95.502 192.585 93.399 191.687 C 91.295 190.79 89.25 189.811 87.272 188.754 C 85.293 187.696 83.383 186.562 81.549 185.355 C 79.716 184.149 77.961 182.872 76.291 181.529 C 74.622 180.185 73.039 178.777 71.549 177.31 C 70.059 175.843 68.663 174.319 67.368 172.744 C 66.072 171.168 64.879 169.542 63.791 167.873 C 62.704 166.204 61.724 164.493 60.856 162.748 C 59.987 161.002 59.231 159.224 58.59 157.42 C 57.949 155.615 57.423 153.787 57.016 151.941 C 56.609 150.095 56.32 148.235 56.151 146.367 C 56.031 145.045 55.971 143.72 55.971 142.394 C 55.996 141.071 56.081 139.749 56.225 138.431 C 56.23 138.318 56.16 138.204 56.176 138.091 C 56.199 137.932 56.253 137.776 56.278 137.617 C 56.544 135.883 56.891 134.156 57.379 132.447 C 57.913 130.58 58.578 128.733 59.371 126.914 C 60.165 125.094 61.086 123.304 62.131 121.55 C 63.178 119.796 64.347 118.081 65.635 116.41 C 66.923 114.739 68.328 113.114 69.844 111.543 C 70.087 111.312 70.333 111.083 70.58 110.855 C 74.337 104.945 80.681 99.233 91.651 94.613 C 104.636 90.028 119.205 86.496 133.041 86.757 C 138.955 86.869 144.749 87.602 150.205 89.359 C 153.338 90.066 156.228 90.933 159.041 91.859 C 168.542 94.987 176.746 99.101 186.803 102.652 C 186.803 102.652 186.695 102.876 190.297 103.767 C 191.732 103.994 193.062 104.112 194.344 104.179 C 215.715 105.304 216.469 85.47 216.469 85.47 L 215.746 81.406 L 213.539 75.89 L 212.487 73.527 L 211.854 72.246 C 211.854 72.246 211.671 70.634 211.414 68.996 C 210.929 75.12 208.491 78.445 208.491 78.445 C 188.786 74.709 185.263 57.719 164.487 50.587 C 160.096 48.861 155.104 48.162 149.912 48.156 L 149.912 48.156 Z"/>
  <path fill="#946857" d="M 45.094 103.457 L 44.976 104.431 C 52.905 104.029 62.623 105.746 69.831 110.803 C 75.42 114.576 80.454 120.207 87.62 117.659 C 92.518 115.941 92.791 113.032 90.913 108.248 C 89.327 104.359 86.706 97.642 83.464 95.067 C 78.795 91.372 66.723 92.662 66.118 84.935 C 65.663 81.282 67.963 78.535 70.004 75.873 C 70 75.873 46.628 81.749 45.094 103.457 L 45.094 103.457 Z"/>
  <path fill="#3F3F3F" d="M 208.869 79.224 C 208.869 79.224 207.971 82.057 203.754 82.305 C 199.538 82.557 200.267 88.42 203.923 91.703 C 207.58 94.987 210.44 95.888 212.878 93.368 C 215.313 90.852 221.292 86.679 208.869 79.224 L 208.869 79.224 Z"/>
  <path fill="#3F3F3F" d="M 183.636 68.457 C 180.985 71.84 176.086 72.423 172.692 69.765 C 169.299 67.095 168.691 62.194 171.344 58.809 C 173.99 55.431 178.893 54.847 182.285 57.508 C 185.68 60.174 186.28 65.073 183.636 68.457 L 183.636 68.457 Z"/>
  <path fill="#3F3F3F" d="M 214.306 68.895 C 214.076 71.902 212.163 74.159 210.034 73.932 C 207.907 73.709 206.37 71.096 206.604 68.083 C 206.836 65.08 208.746 62.824 210.872 63.048 C 212.999 63.278 214.537 65.89 214.306 68.895 L 214.306 68.895 Z"/>
 </g>
 <g opacity=".4">
  <linearGradient id="_lgradient_174" x1=".517" x2=".517" y1="0" y2="1">
   <stop offset="0%" style="stop-color:rgb(255,255,255)"/>
   <stop offset="12.5%" stop-opacity=".098" style="stop-color:rgb(255,255,255)"/>
   <stop offset="92.5%" stop-opacity=".098" style="stop-color:rgb(0,0,0)"/>
   <stop offset="100%" stop-opacity=".498" style="stop-color:rgb(0,0,0)"/>
  </linearGradient>
  <path fill="none" stroke="url(#_lgradient_174)" stroke-linecap="round" stroke-linejoin="round" stroke-width="4.077" d="M 165.685 11.947 C 239.74 11.947 250.324 22.504 250.324 96.491 L 250.324 155.742 C 250.324 229.728 239.74 240.285 165.685 240.285 L 90.315 240.285 C 16.26 240.285 5.676 229.728 5.676 155.742 L 5.676 96.491 C 5.676 22.504 16.26 11.947 90.315 11.947 L 165.685 11.947 Z" vector-effect="non-scaling-stroke"/>
 </g>
</svg>
